X:136
T:Baptized Into Thy Name Most Holy
%%stretchlast false
M:3/4
L:1/4
K:F clef=C1
"^I"[FAcf] [F,Fca] [FAcf] | "^V"[Cceg]2 "^I¹"[A,cfc'] | "^IV"[B,Fdb]2 "^I"[F,Fca] | "^V"[CEcg] "^I"[F,Acf]2 | "^V"[CGeg] "^V/V¹"[=B,Gdg] "^V"[Cceg] | "^I"[Fcfa]2 "^V¹"[EGcc'] | "^vi7¹"[FAdc']2 "^V/V"[Gd=b] | "^V"[CGec']3 | "^I"[FAcf] [F,Fca] [FAcf] | "^V"[Cceg]2 "^I¹"[A,cfc'] | "^IV"[B,Fdb]2 "^I"[F,Fca] | "^V"[CEcg] "^I"[F,Acf]2 | "^V"[CGeg] "^V/V¹"[=B,Gdg] "^V"[Cceg] | "^I"[Fcfa]2 "^V¹"[EGcc'] | "^vi7¹"[FAdc']2 "^V/V"[Gd=b] | "^V"[CGec']3 | [CEcg] "^II7²"[DF=Bg] "^V¹"[EGcg] | "^I"[Fca]2 "^vi"[DAdf] | "^ii"[GBdb] [GBeb] "^I"[Fcfa] | "^V"[Cceg]3 | [CGec'] [CGec'] "^I"[F,Afc'] | "^ii"[G,Bdb]2 "^I¹"[A,cfa] | "^ii7¹"[B,dfg] "^V"[Cceg]2 | "^I"[F,Af]3 |]
